; generated by PrusaSlicer 2.6.0-alpha6+win64 on 2023-07-17 at 20:02:48 UTC

; 

; external perimeters extrusion width = 0.45mm
; perimeters extrusion width = 0.45mm
; infill extrusion width = 0.45mm
; solid infill extrusion width = 0.45mm
; top infill extrusion width = 0.40mm
; first layer extrusion width = 0.42mm

M73 P0 R227
M73 Q0 S228
M201 X1000 Y1000 Z200 E5000 ; sets maximum accelerations, mm/sec^2
M203 X200 Y200 Z12 E120 ; sets maximum feedrates, mm / sec
M204 S1250 T1250 ; sets acceleration (S) and retract acceleration (R), mm/sec^2
M205 X8.00 Y8.00 Z0.40 E4.50 ; sets the jerk limits, mm/sec
M205 S0 T0 ; sets the minimum extruding and travel feed rate, mm/sec
;TYPE:Custom
M862.3 P "MK3S" ; printer model check
M862.1 P0.4 ; nozzle diameter check
M115 U3.10.0 ; tell printer latest fw version
G90 ; use absolute coordinates
M83 ; extruder relative mode
M104 S235 ; set extruder temp
M140 S30 ; set bed temp
M190 S30 ; wait for bed temp
M109 S235 ; wait for extruder temp
G28 W ; home all without mesh bed level
G80 ; mesh bed leveling
G1 Y-3.0 F1000.0 ; go outside print area
G92 E0.0
G1 X60.0 E9.0 F1000.0 ; intro line
G1 X100.0 E12.5 F1000.0 ; intro line
G92 E0.0
M221 S95

; Don't change E values below. Excessive value can damage the printer.
M907 E430 ; set extruder motor current
G21 ; set units to millimeters
G90 ; use absolute coordinates
M83 ; use relative distances for extrusion
M900 K0
M107
;LAYER_CHANGE
;Z:0.2
;HEIGHT:0.2
;BEFORE_LAYER_CHANGE
G92 E0.0
;0.2


G1 Z.2 F9000
;AFTER_LAYER_CHANGE
;0.2
G1 X74.761 Y82.032
M204 S1000
;TYPE:Skirt/Brim
;WIDTH:0.42
G1 F600
G1 X75.162 Y81.667 E.0204
G1 X76.212 Y81.058 E.04567
G1 X77.015 Y80.799 E.03175
G1 X78.098 Y80.671 E.04103
G1 X102.14 Y80.681 E.90458
G1 X103.325 Y80.89 E.04527
G1 X104.53 Y81.45 E.05
G1 X105.184 Y81.958 E.03116
G1 X105.765 Y82.595 E.03244
G1 X106.369 Y83.643 E.04551
G1 X106.628 Y84.448 E.03182
G1 X106.754 Y85.525 E.0408
G1 X106.754 Y90.475 E.18624
G1 X106.712 Y91.08 E.02282
G1 X106.534 Y91.906 E.03179
G1 X106.215 Y92.689 E.03181
G1 X105.765 Y93.405 E.03182
G1 X105.203 Y94.026 E.03151
G1 X104.539 Y94.543 E.03166
G1 X96.306 Y99 E.35225
G1 X95 Y99.329 E.05067
G1 X85 Y99.329 E.37625
G1 X83.694 Y99 E.05067
G1 X75.47 Y94.55 E.35182
G1 X74.816 Y94.043 E.03114
G1 X74.246 Y93.418 E.03183
G1 X73.637 Y92.37 E.04561
G1 X73.375 Y91.566 E.03182
G1 X73.246 Y90.477 E.04126
G1 X73.246 Y85.525 E.18632
G1 X73.371 Y84.451 E.04068
G1 X73.781 Y83.321 E.04523
G1 X74.532 Y82.241 E.04949
G1 X74.717 Y82.073 E.0094
G1 X74.971 Y82.35 F9000
G1 F600
G1 X75.379 Y81.975 E.02085
G1 X76.371 Y81.4 E.04314
G1 X77.114 Y81.163 E.02934
G1 X78.098 Y81.048 E.03728
G1 X102.107 Y81.057 E.90334
G1 X103.227 Y81.254 E.04279
M73 Q0 S227
G1 X104.313 Y81.759 E.04506
G1 X104.918 Y82.225 E.02873
G1 X105.456 Y82.812 E.02996
G1 X106.028 Y83.802 E.04302
G1 X106.264 Y84.545 E.02933
G1 X106.377 Y85.525 E.03712
G1 X106.377 Y90.475 E.18624
G1 X106.169 Y91.808 E.05076
G1 X105.873 Y92.53 E.02936
G1 X105.456 Y93.188 E.02931
G1 X104.936 Y93.759 E.02906
G1 X104.322 Y94.235 E.02923
G1 X96.127 Y98.668 E.35056
G1 X95 Y98.952 E.04373
G1 X85 Y98.952 E.37625
G1 X83.873 Y98.668 E.04373
G1 X75.687 Y94.241 E.35015
G1 X75.082 Y93.775 E.02873
G1 X74.554 Y93.201 E.02934
G1 X73.978 Y92.21 E.04313
G1 X73.739 Y91.467 E.02937
G1 X73.623 Y90.477 E.0375
G1 X73.623 Y85.525 E.18632
G1 X73.735 Y84.548 E.037
G1 X74.123 Y83.479 E.04279
G1 X74.8 Y82.507 E.04457
G1 X74.927 Y82.39 E.0065
; printing object SmallBellow.STL id:0 copy 0
G1 X91.156 Y92.233 F9000
;TYPE:Perimeter
;WIDTH:0.527749
G1 F600
G1 X91.142 Y92.717 E.02342
G1 X88.858 Y92.717 E.11049
G1 X88.844 Y92.233 E.02342
G1 X91.096 Y92.233 E.10894
G1 X91.635 Y91.802 F9000
;WIDTH:0.419999
G1 F600
G1 X91.573 Y92.354 E.0209
G1 X91.573 Y93.148 E.02987
G1 X88.427 Y93.148 E.11837
G1 X88.427 Y92.354 E.02987
G1 X88.365 Y91.802 E.0209
G1 X91.575 Y91.802 E.12078
G1 X92.134 Y91.425 F9000
G1 F600
G1 X92.019 Y91.733 E.01237
G1 X91.95 Y92.354 E.02351
G1 X91.95 Y93.525 E.04406
G1 X88.05 Y93.525 E.14674
G1 X88.05 Y92.354 E.04406
G1 X87.981 Y91.733 E.02351
G1 X87.866 Y91.425 E.01237
G1 X92.074 Y91.425 E.15833
G1 X92.732 Y91.047 F9000
G1 F600
G1 X92.616 Y91.2 E.00722
G1 X92.387 Y91.816 E.02473
G1 X92.328 Y92.354 E.02036
G1 X92.328 Y93.903 E.05828
G1 X87.672 Y93.903 E.17518
G1 X87.672 Y92.354 E.05828
G1 X87.613 Y91.816 E.02036
G1 X87.384 Y91.2 E.02473
G1 X87.268 Y91.047 E.00722
G1 X92.672 Y91.047 E.20333
G1 X93.626 Y90.67 F9000
G1 F600
G1 X93.348 Y90.852 E.0125
G1 X92.949 Y91.378 E.02484
G1 X92.755 Y91.898 E.02088
G1 X92.705 Y92.354 E.01726
G1 X92.705 Y94.28 E.07247
G1 X87.295 Y94.28 E.20355
G1 X87.295 Y92.475 E.06791
G1 X87.245 Y91.898 E.02179
G1 X87.051 Y91.378 E.02088
G1 X86.652 Y90.852 E.02484
G1 X86.374 Y90.67 E.0125
G1 X93.566 Y90.67 E.2706
G1 X98.981 Y90.66 F9000
;WIDTH:0.413144
G1 F600
G1 X94.779 Y90.66 E.15523
;WIDTH:0.427378
G1 X94.485 Y90.679 E.0113
G1 X94.126 Y90.787 E.01438
;WIDTH:0.419999
G1 X93.608 Y91.125 E.02327
G1 X93.281 Y91.555 E.02033
G1 X93.123 Y91.981 E.0171
G1 X93.082 Y92.354 E.01412
G1 X93.082 Y94.657 E.08665
G1 X86.918 Y94.657 E.23192
G1 X86.918 Y92.475 E.0821
G1 X86.877 Y91.981 E.01865
G1 X86.719 Y91.555 E.0171
G1 X86.392 Y91.125 E.02033
G1 X85.874 Y90.787 E.02327
G1 X85.221 Y90.66 E.02503
;WIDTH:0.413144
G1 X78.192 Y90.66 E.25966
G1 X77.986 Y90.611 E.00782
G1 X77.922 Y90.475 E.00555
G1 X77.986 Y90.339 E.00555
G1 X78.184 Y90.29 E.00753
G1 X85.221 Y90.29 E.25995
;WIDTH:0.419999
G1 X94.779 Y90.29 E.35962
;WIDTH:0.413143
G1 X101.808 Y90.29 E.25966
G1 X101.915 Y90.299 E.00397
G1 X102.025 Y90.35 E.00448
G1 X102.076 Y90.49 E.0055
;WIDTH:0.413144
G1 X102.014 Y90.611 E.00502
G1 X101.816 Y90.66 E.00753
G1 X99.041 Y90.66 E.10251
G1 X98.981 Y91.034 F9000
;WIDTH:0.419999
G1 F600
G1 X94.779 Y91.034 E.1581
G1 X94.551 Y91.054 E.00861
G1 X94.271 Y91.135 E.01097
G1 X93.868 Y91.398 E.01811
G1 X93.614 Y91.732 E.01579
G1 X93.491 Y92.064 E.01332
G1 X93.459 Y92.354 E.01098
G1 X93.459 Y95.034 E.10084
G1 X86.541 Y95.034 E.26029
G1 X86.541 Y92.475 E.09628
G1 X86.509 Y92.064 E.01551
M73 P0 R226
G1 X86.386 Y91.732 E.01332
G1 X86.132 Y91.398 E.01579
G1 X85.729 Y91.135 E.01811
G1 X85.221 Y91.034 E.01949
G1 X78.192 Y91.034 E.26447
G1 X78.004 Y91.019 E.0071
G1 X77.745 Y90.899 E.01074
G1 X77.58 Y90.664 E.0108
G1 X77.556 Y90.379 E.01076
G1 X77.676 Y90.12 E.01074
G1 X77.867 Y89.976 E.009
G1 X78.167 Y89.916 E.01151
G1 X101.808 Y89.916 E.88949
G1 X101.996 Y89.931 E.0071
G1 X102.255 Y90.051 E.01074
G1 X102.42 Y90.286 E.0108
G1 X102.444 Y90.571 E.01076
G1 X102.324 Y90.83 E.01074
G1 X102.133 Y90.974 E.009
G1 X101.833 Y91.034 E.01151
G1 X99.041 Y91.034 E.10505
G1 X98.981 Y91.411 F9000
G1 F600
G1 X94.779 Y91.411 E.1581
G1 X94.416 Y91.483 E.01392
G1 X94.128 Y91.671 E.01294
G1 X93.947 Y91.91 E.01128
G1 X93.859 Y92.147 E.00951
G1 X93.836 Y92.354 E.00784
G1 X93.836 Y95.411 E.11502
G1 X86.164 Y95.411 E.28866
G1 X86.164 Y92.475 E.11047
G1 X86.141 Y92.147 E.01237
G1 X86.053 Y91.91 E.00951
G1 X85.872 Y91.671 E.01128
G1 X85.584 Y91.483 E.01294
G1 X85.221 Y91.411 E.01392
G1 X78.192 Y91.411 E.26447
G1 X77.781 Y91.35 E.01563
G1 X77.501 Y91.188 E.01217
G1 X77.293 Y90.941 E.01215
G1 X77.183 Y90.637 E.01216
G1 X77.183 Y90.313 E.01219
G1 X77.293 Y90.009 E.01216
G1 X77.501 Y89.762 E.01215
G1 X77.781 Y89.6 E.01217
G1 X78.151 Y89.539 E.01411
G1 X101.808 Y89.539 E.8901
G1 X102.14 Y89.579 E.01258
G1 X102.432 Y89.715 E.01212
G1 X102.66 Y89.943 E.01213
G1 X102.796 Y90.235 E.01212
G1 X102.817 Y90.637 E.01515
G1 X102.707 Y90.941 E.01216
G1 X102.499 Y91.188 E.01215
G1 X102.219 Y91.35 E.01217
G1 X101.849 Y91.411 E.01411
G1 X99.041 Y91.411 E.10565
G1 X98.981 Y91.788 F9000
G1 F600
G1 X94.779 Y91.788 E.1581
G1 X94.681 Y91.796 E.0037
G1 X94.388 Y91.944 E.01235
G1 X94.279 Y92.087 E.00677
G1 X94.213 Y92.354 E.01035
G1 X94.213 Y95.788 E.1292
G1 X85.787 Y95.788 E.31703
G1 X85.787 Y92.475 E.12465
G1 X85.773 Y92.229 E.00927
G1 X85.612 Y91.944 E.01232
G1 X85.439 Y91.831 E.00777
G1 X85.221 Y91.788 E.00836
G1 X78.134 Y91.788 E.26665
G1 X77.652 Y91.706 E.0184
G1 X77.258 Y91.478 E.01713
G1 X76.966 Y91.13 E.01709
G1 X76.81 Y90.702 E.01714
G1 X76.81 Y90.248 E.01708
G1 X76.966 Y89.82 E.01714
G1 X77.258 Y89.472 E.01709
G1 X77.652 Y89.244 E.01713
G1 X78.134 Y89.162 E.0184
G1 X101.866 Y89.162 E.89292
G1 X102.348 Y89.244 E.0184
G1 X102.742 Y89.472 E.01713
G1 X103.034 Y89.82 E.01709
G1 X103.19 Y90.248 E.01714
G1 X103.2 Y90.589 E.01284
G1 X103.19 Y90.702 E.00427
G1 X103.034 Y91.13 E.01714
G1 X102.742 Y91.478 E.01709
G1 X102.348 Y91.706 E.01713
G1 X101.866 Y91.788 E.0184
G1 X99.041 Y91.788 E.10629
G1 X98.981 Y92.165 F9000
;TYPE:External perimeter
G1 F600
G1 X94.779 Y92.165 E.1581
G1 X94.649 Y92.217 E.00527
G1 X94.59 Y92.354 E.00561
G1 X94.59 Y96.165 E.14339
G1 X85.41 Y96.165 E.3454
G1 X85.41 Y92.354 E.14339
G1 X85.351 Y92.217 E.00561
G1 X85.221 Y92.165 E.00527
G1 X78.192 Y92.165 E.26447
G1 X77.665 Y92.1 E.01998
G1 X77.256 Y91.937 E.01657
G1 X76.911 Y91.664 E.01655
G1 X76.638 Y91.319 E.01655
G1 X76.475 Y90.91 E.01657
G1 X76.412 Y90.475 E.01654
G1 X76.475 Y90.04 E.01654
G1 X76.638 Y89.631 E.01657
G1 X76.911 Y89.286 E.01655
G1 X77.256 Y89.013 E.01655
G1 X77.665 Y88.85 E.01657
G1 X78.118 Y88.785 E.01722
G1 X101.808 Y88.785 E.89134
G1 X101.956 Y88.791 E.00557
G1 X102.477 Y88.888 E.01994
G1 X102.865 Y89.097 E.01658
G1 X103.193 Y89.39 E.01655
G1 X103.424 Y89.764 E.01654
G1 X103.563 Y90.182 E.01657
G1 X103.576 Y90.622 E.01656
G1 X103.525 Y90.91 E.011
G1 X103.362 Y91.319 E.01657
G1 X103.089 Y91.664 E.01655
G1 X102.744 Y91.937 E.01655
G1 X102.335 Y92.1 E.01657
G1 X101.882 Y92.165 E.01722
G1 X99.041 Y92.165 E.10689
G1 X98.778 Y91.82 F9000
G1 X99.041 Y92.009
G1 X93.98 Y88.941
G1 X91.028 Y87.059
G1 X88.329 Y85.34
;TYPE:Perimeter
;WIDTH:0.413144
G1 F600
G1 X101.808 Y85.34 E.49793
G1 X101.915 Y85.349 E.00397
G1 X102.025 Y85.4 E.00448
G1 X102.076 Y85.54 E.0055
G1 X102.014 Y85.661 E.00502
G1 X101.808 Y85.71 E.00782
G1 X78.192 Y85.71 E.8724
G1 X77.986 Y85.661 E.00782
G1 X77.922 Y85.525 E.00555
G1 X77.986 Y85.389 E.00555
G1 X78.184 Y85.34 E.00753
G1 X88.269 Y85.34 E.37255
G1 X88.329 Y84.966 F9000
;WIDTH:0.419999
G1 F600
G1 X101.808 Y84.966 E.50715
G1 X101.996 Y84.981 E.0071
G1 X102.255 Y85.101 E.01074
G1 X102.42 Y85.336 E.0108
G1 X102.449 Y85.573 E.00898
G1 X102.444 Y85.621 E.00182
G1 X102.324 Y85.88 E.01074
G1 X102.133 Y86.024 E.009
G1 X101.833 Y86.084 E.01151
G1 X78.192 Y86.084 E.88949
G1 X78.004 Y86.069 E.0071
G1 X77.745 Y85.949 E.01074
G1 X77.58 Y85.714 E.0108
G1 X77.556 Y85.429 E.01076
G1 X77.676 Y85.17 E.01074
G1 X77.867 Y85.026 E.009
G1 X78.167 Y84.966 E.01151
G1 X88.269 Y84.966 E.38009
G1 X88.329 Y84.589 F9000
G1 F600
G1 X101.808 Y84.589 E.50715
G1 X102.14 Y84.629 E.01258
G1 X102.432 Y84.765 E.01212
G1 X102.66 Y84.993 E.01213
G1 X102.796 Y85.285 E.01212
G1 X102.824 Y85.606 E.01212
G1 X102.817 Y85.687 E.00306
G1 X102.707 Y85.991 E.01216
G1 X102.499 Y86.238 E.01215
G1 X102.219 Y86.4 E.01217
G1 X101.849 Y86.461 E.01411
G1 X78.192 Y86.461 E.8901
G1 X77.781 Y86.4 E.01563
G1 X77.501 Y86.238 E.01217
G1 X77.293 Y85.991 E.01215
G1 X77.183 Y85.687 E.01216
G1 X77.183 Y85.363 E.01219
G1 X77.293 Y85.059 E.01216
G1 X77.501 Y84.812 E.01215
G1 X77.781 Y84.65 E.01217
G1 X78.151 Y84.589 E.01411
G1 X88.269 Y84.589 E.38069
G1 X88.329 Y84.212 F9000
G1 F600
G1 X101.866 Y84.212 E.50933
G1 X102.348 Y84.294 E.0184
M73 Q0 S226
G1 X102.742 Y84.522 E.01713
G1 X103.034 Y84.87 E.01709
G1 X103.19 Y85.298 E.01714
G1 X103.19 Y85.752 E.01708
G1 X103.034 Y86.18 E.01714
G1 X102.742 Y86.528 E.01709
G1 X102.348 Y86.756 E.01713
G1 X101.866 Y86.838 E.0184
G1 X78.134 Y86.838 E.89292
G1 X77.652 Y86.756 E.0184
G1 X77.258 Y86.528 E.01713
G1 X76.966 Y86.18 E.01709
G1 X76.81 Y85.752 E.01714
G1 X76.81 Y85.298 E.01708
G1 X76.966 Y84.87 E.01714
G1 X77.258 Y84.522 E.01709
G1 X77.652 Y84.294 E.01713
G1 X78.134 Y84.212 E.0184
G1 X88.269 Y84.212 E.38133
G1 X88.329 Y83.835 F9000
;TYPE:External perimeter
G1 F600
G1 X101.956 Y83.841 E.51272
G1 X102.477 Y83.938 E.01994
G1 X102.865 Y84.147 E.01658
G1 X103.193 Y84.44 E.01655
G1 X103.424 Y84.814 E.01654
G1 X103.563 Y85.232 E.01657
G1 X103.576 Y85.672 E.01656
G1 X103.525 Y85.96 E.011
G1 X103.362 Y86.369 E.01657
G1 X103.089 Y86.714 E.01655
G1 X102.744 Y86.987 E.01655
G1 X102.335 Y87.15 E.01657
G1 X101.882 Y87.215 E.01722
G1 X78.192 Y87.215 E.89134
G1 X77.665 Y87.15 E.01998
G1 X77.256 Y86.987 E.01657
G1 X76.911 Y86.714 E.01655
G1 X76.638 Y86.369 E.01655
G1 X76.475 Y85.96 E.01657
G1 X76.412 Y85.525 E.01654
G1 X76.475 Y85.09 E.01654
G1 X76.638 Y84.681 E.01657
G1 X76.911 Y84.336 E.01655
G1 X77.256 Y84.063 E.01655
G1 X77.665 Y83.9 E.01657
G1 X78.118 Y83.835 E.01722
G1 X88.269 Y83.835 E.38193
G1 X88.53 Y84.181 F9000
; stop printing object SmallBellow.STL id:0 copy 0
;LAYER_CHANGE
;Z:0.4
;HEIGHT:0.2
;BEFORE_LAYER_CHANGE
G92 E0.0
;0.4


G1 Z.4 F9000
;AFTER_LAYER_CHANGE
;0.4
G1 X88.271 Y80.675
;TYPE:Skirt/Brim
;WIDTH:0.42
G1 F300
G1 X102.14 Y80.681 E.52182
G1 X103.325 Y80.89 E.04527
G1 X104.53 Y81.45 E.05
G1 X105.184 Y81.958 E.03116
G1 X105.765 Y82.595 E.03244
G1 X106.369 Y83.643 E.04551
G1 X106.628 Y84.448 E.03182
G1 X106.754 Y85.525 E.0408
G1 X106.754 Y90.475 E.18624
G1 X106.712 Y91.08 E.02282
G1 X106.534 Y91.906 E.03179
G1 X106.215 Y92.689 E.03181
G1 X105.765 Y93.405 E.03182
G1 X105.203 Y94.026 E.03151
G1 X104.539 Y94.543 E.03166
G1 X96.306 Y99 E.35225
G1 X95 Y99.329 E.05067
G1 X85 Y99.329 E.37625
G1 X83.694 Y99 E.05067
M73 P0 R225
G1 X75.47 Y94.55 E.35182
G1 X74.816 Y94.043 E.03114
G1 X74.246 Y93.418 E.03183
G1 X73.637 Y92.37 E.04561
G1 X73.375 Y91.566 E.03182
G1 X73.246 Y90.477 E.04126
G1 X73.246 Y85.525 E.18632
G1 X73.371 Y84.451 E.04068
G1 X73.781 Y83.321 E.04523
G1 X74.532 Y82.241 E.04949
G1 X75.162 Y81.667 E.03207
G1 X76.212 Y81.058 E.04567
G1 X77.015 Y80.799 E.03175
G1 X78.098 Y80.671 E.04103
G1 X88.211 Y80.675 E.3805
G1 X88.211 Y81.052 F9000
G1 F300
G1 X102.107 Y81.057 E.52284
G1 X103.227 Y81.254 E.04279
G1 X104.313 Y81.759 E.04506
G1 X104.918 Y82.225 E.02873
G1 X105.456 Y82.812 E.02996
G1 X106.028 Y83.802 E.04302
G1 X106.264 Y84.545 E.02933
G1 X106.377 Y85.525 E.03712
G1 X106.377 Y90.475 E.18624
G1 X106.169 Y91.808 E.05076
G1 X105.873 Y92.53 E.02936
G1 X105.456 Y93.188 E.02931
G1 X104.936 Y93.759 E.02906
G1 X104.322 Y94.235 E.02923
G1 X96.127 Y98.668 E.35056
G1 X95 Y98.952 E.04373
G1 X85 Y98.952 E.37625
G1 X83.873 Y98.668 E.04373
G1 X75.687 Y94.241 E.35015
G1 X75.082 Y93.775 E.02873
G1 X74.554 Y93.201 E.02934
G1 X73.978 Y92.21 E.04313
G1 X73.739 Y91.467 E.02937
G1 X73.623 Y90.477 E.0375
G1 X73.623 Y85.525 E.18632
G1 X73.735 Y84.548 E.037
G1 X74.123 Y83.479 E.04279
G1 X74.8 Y82.507 E.04457
G1 X75.379 Y81.975 E.02958
G1 X76.371 Y81.4 E.04314
G1 X77.114 Y81.163 E.02934
G1 X78.098 Y81.048 E.03728
G1 X88.151 Y81.052 E.37825
; printing object SmallBellow.STL id:0 copy 0
G1 X88.909 Y84.036 F9000
G1 X89.666 Y87.014
G1 X90.168 Y88.986
G1 X91.107 Y92.682
M204 S800
;TYPE:Perimeter
;WIDTH:0.457749
G1 F300
G1 X88.893 Y92.682 E.09164
G1 X88.864 Y92.268 E.01718
G1 X91.136 Y92.268 E.09404
G1 X91.111 Y92.623 E.01473
M204 S1000
G1 X91.518 Y93.093 F9000
M204 S800
;WIDTH:0.449999
G1 F300
G1 X88.482 Y93.093 E.12332
G1 X88.481 Y92.487 E.02461
G1 X88.399 Y91.857 E.02581
G1 X91.601 Y91.857 E.13006
G1 X91.518 Y92.554 E.02851
G1 X91.518 Y93.033 E.01946
M204 S1000
G1 X91.925 Y93.5 F9000
M204 S800
G1 F300
G1 X88.075 Y93.5 E.15638
G1 X88.074 Y92.495 E.04082
G1 X87.987 Y91.828 E.02732
G1 X87.839 Y91.45 E.01649
G1 X92.161 Y91.45 E.17555
G1 X92.013 Y91.828 E.01649
G1 X91.925 Y92.554 E.0297
G1 X91.925 Y93.44 E.03599
M204 S1000
G1 X92.333 Y93.908 F9000
M204 S800
G1 F300
G1 X87.667 Y93.908 E.18953
G1 X87.667 Y92.503 E.05707
G1 X87.592 Y91.924 E.02371
G1 X87.335 Y91.269 E.02858
G1 X87.157 Y91.042 E.01172
G1 X92.843 Y91.042 E.23096
G1 X92.665 Y91.269 E.01172
G1 X92.408 Y91.924 E.02858
G1 X92.333 Y92.554 E.02577
G1 X92.333 Y93.848 E.05256
M204 S1000
G1 X92.74 Y94.315 F9000
M204 S800
G1 F300
G1 X87.26 Y94.315 E.22259
G1 X87.26 Y92.554 E.07153
G1 X87.196 Y92.021 E.02181
G1 X86.979 Y91.467 E.02417
G1 X86.544 Y90.912 E.02864
G1 X86.11 Y90.635 E.02091
G1 X93.89 Y90.635 E.31601
