; generated by PrusaSlicer 2.6.0-alpha6+win64 on 2023-08-25 at 00:12:49 UTC


;
;
; 

; external perimeters extrusion width = 0.45mm
; perimeters extrusion width = 0.45mm
; infill extrusion width = 0.45mm
; solid infill extrusion width = 0.45mm
; top infill extrusion width = 0.40mm
; first layer extrusion width = 0.42mm

M73 P0 R51
M73 Q0 S51
M201 X1000 Y1000 Z200 E5000 ; sets maximum accelerations, mm/sec^2
M203 X200 Y200 Z12 E120 ; sets maximum feedrates, mm / sec
M204 S1250 T1250 ; sets acceleration (S) and retract acceleration (R), mm/sec^2
M205 X8.00 Y8.00 Z0.40 E4.50 ; sets the jerk limits, mm/sec
M205 S0 T0 ; sets the minimum extruding and travel feed rate, mm/sec
;TYPE:Custom
M862.3 P "MK3S" ; printer model check
M862.1 P0.4 ; nozzle diameter check
M115 U3.12.2 ; tell printer latest fw version
G90 ; use absolute coordinates
M83 ; extruder relative mode
M104 S215 ; set extruder temp
M140 S60 ; set bed temp
M190 S60 ; wait for bed temp
M109 S215 ; wait for extruder temp
G28 W ; home all without mesh bed level
G80 ; mesh bed leveling

G1 Z0.2 F720
G1 Y-3 F1000 ; go outside print area
G92 E0
G1 X60 E9 F1000 ; intro line
G1 X100 E12.5 F1000 ; intro line

G92 E0
M221 S95

; Don't change E values below. Excessive value can damage the printer.
M907 E430 ; set extruder motor current
G21 ; set units to millimeters
G90 ; use absolute coordinates
M83 ; use relative distances for extrusion
M900 K0.05 ; Filament gcode LA 1.5
M900 K30 ; Filament gcode LA 1.0
M107
;LAYER_CHANGE
G1 Y150 Z60
G4 P5000
;Z:0.2
;HEIGHT:0.2
;BEFORE_LAYER_CHANGE
G92 E0.0
;0.2


M73 P0 R50
G1 E-.8 F2100
G1 Z.4 F720
;AFTER_LAYER_CHANGE
;0.2
G1 X109.23 Y97.602 F10800
G1 Z.2 F720
G1 E.8 F2100
M204 S800
;TYPE:Skirt/Brim
;WIDTH:0.42
G1 F1200
G1 X110.168 Y96.662 E.04164
G1 X111.212 Y96.058 E.03782
G1 X112.016 Y95.798 E.02649
G1 X113.098 Y95.671 E.03416
G1 X137.14 Y95.681 E.75382
G1 X138.325 Y95.89 E.03773
M73 Q0 S50
G1 X139.53 Y96.45 E.04166
G1 X140.186 Y96.959 E.02603
G1 X140.755 Y97.584 E.0265
G1 X141.369 Y98.643 E.03838
G1 X141.628 Y99.448 E.02651
G1 X141.754 Y100.525 E.034
G1 X141.754 Y105.475 E.1552
G1 X141.712 Y106.08 E.01902
G1 X141.534 Y106.906 E.02649
G1 X141.215 Y107.689 E.02651
G1 X140.765 Y108.405 E.02652
G1 X140.197 Y109.031 E.0265
G1 X139.531 Y109.549 E.02645
G1 X131.306 Y114 E.29323
G1 X130 Y114.329 E.04223
G1 X120 Y114.329 E.31354
G1 X118.694 Y114 E.04223
G1 X110.47 Y109.55 E.29319
G1 X109.544 Y108.772 E.03792
G1 X109.029 Y108.11 E.0263
G1 X108.635 Y107.366 E.0264
G1 X108.374 Y106.561 E.02653
G1 X108.246 Y105.475 E.03429
G1 X108.246 Y100.525 E.1552
G1 X108.369 Y99.462 E.03355
G1 X108.627 Y98.652 E.02665
G1 X109.2 Y97.654 E.03608
M204 S1000
G1 X109.526 Y97.842 F10800
M204 S800
G1 F1200
G1 X110.384 Y96.971 E.03833
G1 X111.372 Y96.4 E.03578
G1 X112.114 Y96.162 E.02443
G1 X113.098 Y96.048 E.03106
G1 X137.107 Y96.057 E.75279
G1 X138.228 Y96.254 E.03569
G1 X139.313 Y96.759 E.03752
G1 X139.92 Y97.227 E.02403
G1 X140.447 Y97.801 E.02443
G1 X141.028 Y98.802 E.03629
G1 X141.264 Y99.545 E.02444
G1 X141.377 Y100.525 E.03093
G1 X141.377 Y105.475 E.1552
G1 X141.169 Y106.808 E.0423
G1 X140.873 Y107.53 E.02447
G1 X140.456 Y108.188 E.02443
G1 X139.931 Y108.765 E.02446
G1 X139.315 Y109.24 E.02439
G1 X131.127 Y113.668 E.29187
G1 X130 Y113.952 E.03644
G1 X120 Y113.952 E.31354
G1 X118.873 Y113.668 E.03644
G1 X110.687 Y109.241 E.2918
G1 X109.81 Y108.506 E.03588
G1 X109.338 Y107.894 E.02423
G1 X108.976 Y107.206 E.02438
G1 X108.738 Y106.463 E.02446
G1 X108.623 Y105.475 E.03119
G1 X108.623 Y100.525 E.1552
G1 X108.733 Y99.559 E.03048
G1 X108.969 Y98.81 E.02462
G1 X109.496 Y97.894 E.03313
M204 S1000
; printing object SmallBellow.STL id:0 copy 0
;WIPE_START
G1 F8640
G1 X110.384 Y96.971 E-.29574
G1 X111.372 Y96.4 E-.26349
G1 X112.114 Y96.162 E-.17993
G1 X112.376 Y96.132 E-.06084
;WIPE_END
G1 Z.6 F720
G1 X129.732 Y106.792 F10800
G1 Z.2 F720
G1 E.8 F2100
M204 S800
;TYPE:Perimeter
;WIDTH:0.419999
G1 F1200
G1 X129.681 Y106.796 E.0016
G1 X129.388 Y106.944 E.01029
G1 X129.279 Y107.087 E.00564
G1 X129.213 Y107.354 E.00862
G1 X129.213 Y110.788 E.10767
G1 X120.787 Y110.788 E.26419
G1 X120.787 Y107.475 E.10388
G1 X120.773 Y107.229 E.00773
G1 X120.612 Y106.944 E.01026
G1 X120.439 Y106.831 E.00648
G1 X120.221 Y106.788 E.00697
G1 X113.134 Y106.788 E.22221
G1 X112.652 Y106.706 E.01533
G1 X112.258 Y106.478 E.01427
G1 X111.966 Y106.13 E.01424
G1 X111.81 Y105.702 E.01428
G1 X111.81 Y105.248 E.01423
G1 X111.966 Y104.82 E.01428
G1 X112.258 Y104.472 E.01424
G1 X112.652 Y104.244 E.01427
G1 X113.134 Y104.162 E.01533
G1 X136.866 Y104.162 E.7441
G1 X137.348 Y104.244 E.01533
G1 X137.742 Y104.472 E.01427
G1 X138.034 Y104.82 E.01424
G1 X138.19 Y105.248 E.01428
G1 X138.19 Y105.702 E.01423
G1 X138.034 Y106.13 E.01428
G1 X137.742 Y106.478 E.01424
G1 X137.348 Y106.706 E.01427
G1 X136.866 Y106.788 E.01533
G1 X129.792 Y106.788 E.2218
M204 S1000
G1 X129.779 Y107.165 F10800
M204 S800
;TYPE:External perimeter
G1 F1200
G1 X129.649 Y107.217 E.00439
G1 X129.59 Y107.354 E.00468
G1 X129.59 Y111.165 E.11949
G1 X120.41 Y111.165 E.28783
G1 X120.41 Y107.354 E.11949
G1 X120.351 Y107.217 E.00468
G1 X120.221 Y107.165 E.00439
G1 X113.192 Y107.165 E.22039
G1 X112.665 Y107.1 E.01665
G1 X112.256 Y106.937 E.0138
G1 X111.911 Y106.664 E.01379
G1 X111.638 Y106.319 E.01379
G1 X111.475 Y105.91 E.0138
G1 X111.412 Y105.475 E.01378
G1 X111.475 Y105.04 E.01378
G1 X111.638 Y104.631 E.0138
G1 X111.911 Y104.286 E.01379
G1 X112.256 Y104.013 E.01379
G1 X112.665 Y103.85 E.0138
G1 X113.118 Y103.785 E.01435
G1 X136.956 Y103.791 E.74742
G1 X137.477 Y103.888 E.01662
G1 X137.865 Y104.097 E.01382
G1 X138.193 Y104.39 E.01379
G1 X138.424 Y104.764 E.01378
G1 X138.563 Y105.182 E.01381
G1 X138.576 Y105.622 E.0138
G1 X138.525 Y105.91 E.00917
G1 X138.362 Y106.319 E.0138
G1 X138.089 Y106.664 E.01379
G1 X137.744 Y106.937 E.01379
G1 X137.335 Y107.1 E.0138
G1 X136.882 Y107.165 E.01435
G1 X129.839 Y107.165 E.22083
M204 S1000
G1 X129.68 Y107.065 F10800
;WIPE_START
G1 F8640
G1 X129.649 Y107.217 E-.04548
G1 X129.59 Y107.354 E-.03444
G1 X129.59 Y110.473 E-.72008
;WIPE_END
G1 Z.6 F720
G1 X138.007 Y105.221 F10800
G1 Z.2 F720
G1 E.8 F2100
M204 S800
;TYPE:Solid infill
;WIDTH:0.425667
G1 F1200
G1 X137.509 Y104.723 E.02241
G1 X137.385 Y104.636 E.00482
G1 X137.232 Y104.564 E.00538
G1 X137.069 Y104.521 E.00537
G1 X136.747 Y104.501 E.01027
G1 X137.857 Y105.612 E.04998
G1 X137.811 Y105.807 E.00638
G1 X137.708 Y106.004 E.00707
G1 X136.205 Y104.501 E.06765
G1 X135.664 Y104.501 E.01722
G1 X137.439 Y106.276 E.07989
G1 X137.232 Y106.386 E.00746
G1 X137.052 Y106.431 E.0059
G1 X135.123 Y104.501 E.08684
G1 X134.581 Y104.501 E.01725
G1 X136.529 Y106.449 E.08768
G1 X135.987 Y106.449 E.01725
G1 X134.04 Y104.501 E.08765
G1 X133.499 Y104.501 E.01722
G1 X135.446 Y106.449 E.08765
G1 X134.905 Y106.449 E.01722
G1 X132.958 Y104.501 E.08765
G1 X132.416 Y104.501 E.01725
G1 X134.363 Y106.449 E.08765
G1 X133.822 Y106.449 E.01722
G1 X131.875 Y104.501 E.08765
G1 X131.334 Y104.501 E.01722
G1 X133.281 Y106.449 E.08765
G1 X132.74 Y106.449 E.01722
G1 X130.792 Y104.501 E.08768
G1 X130.251 Y104.501 E.01722
G1 X132.198 Y106.449 E.08765
G1 X131.657 Y106.449 E.01722
G1 X129.71 Y104.501 E.08765
G1 X129.169 Y104.501 E.01722
G1 X131.116 Y106.449 E.08765
G1 X130.574 Y106.449 E.01725
G1 X128.627 Y104.501 E.08765
G1 X128.086 Y104.501 E.01722
G1 X130.033 Y106.449 E.08765
G1 X129.772 Y106.449 E.00831
G1 X129.531 Y106.488 E.00777
G1 X127.545 Y104.501 E.08941
G1 X127.003 Y104.501 E.01725
G1 X129.18 Y106.678 E.09798
G1 X128.98 Y106.925 E.01011
G1 X128.954 Y106.993 E.00232
G1 X126.462 Y104.501 E.11216
G1 X125.921 Y104.501 E.01722
G1 X128.874 Y107.454 E.13291
G1 X128.874 Y107.995 E.01722
G1 X125.38 Y104.501 E.15726
G1 X124.838 Y104.501 E.01725
G1 X128.874 Y108.537 E.18165
G1 X128.874 Y109.078 E.01722
G1 X124.297 Y104.501 E.206
G1 X123.756 Y104.501 E.01722
G1 X128.874 Y109.619 E.23035
G1 X128.874 Y110.161 E.01725
G1 X123.214 Y104.501 E.25475
G1 X122.673 Y104.501 E.01722
G1 X128.62 Y110.449 E.26769
G1 X128.079 Y110.449 E.01722
G1 X122.132 Y104.501 E.26769
G1 X121.591 Y104.501 E.01722
G1 X127.538 Y110.449 E.26769
G1 X126.996 Y110.449 E.01725
M73 P1 R50
M73 Q1 S50
G1 X121.049 Y104.501 E.26769
G1 X120.508 Y104.501 E.01722
G1 X126.455 Y110.449 E.26769
G1 X125.914 Y110.449 E.01722
G1 X119.967 Y104.501 E.26769
G1 X119.425 Y104.501 E.01725
G1 X125.373 Y110.449 E.26771
G1 X124.831 Y110.449 E.01725
G1 X118.884 Y104.501 E.26769
G1 X118.343 Y104.501 E.01722
G1 X120.303 Y106.462 E.08824
G1 X120.57 Y106.515 E.00866
G1 X120.846 Y106.695 E.01049
G1 X121.02 Y106.925 E.00918
G1 X121.105 Y107.153 E.00774
G1 X121.119 Y107.277 E.00397
G1 X124.29 Y110.449 E.14274
G1 X123.749 Y110.449 E.01722
G1 X121.126 Y107.826 E.11806
G1 X121.126 Y108.368 E.01725
G1 X123.207 Y110.449 E.09366
G1 X122.666 Y110.449 E.01722
G1 X121.126 Y108.909 E.06931
G1 X121.126 Y109.45 E.01722
G1 X122.125 Y110.449 E.04496
G1 X121.584 Y110.449 E.01722
G1 X120.957 Y109.822 E.02822
M204 S1000
;WIPE_START
G1 F8640
G1 X121.584 Y110.449 E-.20474
G1 X122.125 Y110.449 E-.12492
G1 X121.126 Y109.45 E-.32622
G1 X121.126 Y108.909 E-.12492
G1 X121.185 Y108.968 E-.0192
;WIPE_END
G1 Z.6 F720
G1 X119.918 Y106.618 F10800
G1 Z.2 F720
G1 E.8 F2100
M204 S800
G1 F1200
G1 X117.802 Y104.501 E.09526
G1 X117.26 Y104.501 E.01725
G1 X119.207 Y106.449 E.08765
G1 X118.666 Y106.449 E.01722
G1 X116.719 Y104.501 E.08765
G1 X116.178 Y104.501 E.01722
G1 X118.125 Y106.449 E.08765
G1 X117.584 Y106.449 E.01722
G1 X115.636 Y104.501 E.08768
G1 X115.095 Y104.501 E.01722
G1 X117.042 Y106.449 E.08765
G1 X116.501 Y106.449 E.01722
G1 X114.554 Y104.501 E.08765
G1 X114.013 Y104.501 E.01722
G1 X115.96 Y106.449 E.08765
G1 X115.418 Y106.449 E.01725
G1 X113.471 Y104.501 E.08765
G1 X113.149 Y104.501 E.01025
G1 X112.948 Y104.519 E.00642
G1 X114.877 Y106.449 E.08684
G1 X114.336 Y106.449 E.01722
G1 X112.561 Y104.674 E.07989
G1 X112.358 Y104.852 E.00859
G1 X112.292 Y104.946 E.00366
G1 X113.795 Y106.449 E.06765
G1 X113.253 Y106.449 E.01725
G1 X112.143 Y105.338 E.04998
G1 X112.131 Y105.475 E.00438
G1 X112.145 Y105.643 E.00537
G1 X112.189 Y105.807 E.0054
G1 X112.261 Y105.96 E.00538
G1 X112.348 Y106.085 E.00485
G1 X112.846 Y106.582 E.02239
M204 S1000
;WIPE_START
G1 F8640
G1 X112.348 Y106.085 E-.16246
G1 X112.261 Y105.96 E-.03517
G1 X112.189 Y105.807 E-.03904
G1 X112.145 Y105.643 E-.03921
G1 X112.131 Y105.475 E-.03893
G1 X112.143 Y105.338 E-.03175
G1 X113.253 Y106.449 E-.36263
G1 X113.646 Y106.449 E-.09081
;WIPE_END
G1 Z.6 F720
G1 X112.277 Y101.539 F10800
G1 Z.2 F720
G1 E.8 F2100
M204 S800
;TYPE:Perimeter
;WIDTH:0.419999
G1 F1200
G1 X111.966 Y101.18 E.01489
G1 X111.81 Y100.752 E.01428
G1 X111.81 Y100.298 E.01423
G1 X111.966 Y99.87 E.01428
G1 X112.258 Y99.522 E.01424
G1 X112.652 Y99.294 E.01427
G1 X113.134 Y99.212 E.01533
G1 X136.866 Y99.212 E.7441
G1 X137.348 Y99.294 E.01533
G1 X137.742 Y99.522 E.01427
G1 X138.034 Y99.87 E.01424
G1 X138.19 Y100.298 E.01428
G1 X138.19 Y100.752 E.01423
G1 X138.034 Y101.18 E.01428
G1 X137.742 Y101.528 E.01424
G1 X137.348 Y101.756 E.01427
G1 X136.866 Y101.838 E.01533
G1 X113.134 Y101.838 E.7441
G1 X112.652 Y101.756 E.01533
G1 X112.329 Y101.569 E.0117
M204 S1000
G1 X112.042 Y101.818 F10800
M204 S800
;TYPE:External perimeter
G1 F1200
G1 X111.911 Y101.714 E.00524
G1 X111.638 Y101.369 E.01379
G1 X111.475 Y100.96 E.0138
G1 X111.412 Y100.525 E.01378
G1 X111.475 Y100.09 E.01378
G1 X111.638 Y99.681 E.0138
G1 X111.911 Y99.336 E.01379
G1 X112.256 Y99.063 E.01379
G1 X112.665 Y98.9 E.0138
G1 X113.118 Y98.835 E.01435
G1 X136.956 Y98.841 E.74742
G1 X137.477 Y98.938 E.01662
G1 X137.865 Y99.147 E.01382
G1 X138.193 Y99.44 E.01379
G1 X138.424 Y99.814 E.01378
G1 X138.563 Y100.232 E.01381
G1 X138.576 Y100.672 E.0138
G1 X138.525 Y100.96 E.00917
G1 X138.362 Y101.369 E.0138
G1 X138.089 Y101.714 E.01379
G1 X137.744 Y101.987 E.01379
G1 X137.335 Y102.15 E.0138
G1 X136.882 Y102.215 E.01435
G1 X113.192 Y102.215 E.74278
G1 X112.665 Y102.15 E.01665
G1 X112.256 Y101.987 E.0138
G1 X112.089 Y101.855 E.00667
M204 S1000
G1 X112.056 Y101.652 F10800
;WIPE_START
G1 F8640
G1 X111.911 Y101.714 E-.05243
G1 X111.638 Y101.369 E-.10159
G1 X111.475 Y100.96 E-.10166
G1 X111.412 Y100.525 E-.10149
G1 X111.475 Y100.09 E-.10149
G1 X111.638 Y99.681 E-.10166
G1 X111.911 Y99.336 E-.10159
G1 X112.256 Y99.063 E-.10159
G1 X112.403 Y99.004 E-.0365
;WIPE_END
G1 Z.6 F720
G1 X137.154 Y99.418 F10800
G1 Z.2 F720
G1 E.8 F2100
M204 S800
;TYPE:Solid infill
;WIDTH:0.425671
G1 F1200
G1 X137.652 Y99.916 E.02241
G1 X137.739 Y100.04 E.00482
G1 X137.811 Y100.193 E.00538
G1 X137.855 Y100.357 E.0054
G1 X137.869 Y100.521 E.00524
G1 X137.849 Y100.654 E.00428
G1 X136.747 Y99.551 E.04962
G1 X136.205 Y99.551 E.01725
G1 X137.708 Y101.054 E.06765
G1 X137.642 Y101.148 E.00366
G1 X137.439 Y101.326 E.00859
G1 X135.664 Y99.551 E.07989
G1 X135.123 Y99.551 E.01722
G1 X137.052 Y101.481 E.08684
G1 X136.851 Y101.499 E.00642
G1 X136.529 Y101.499 E.01025
G1 X134.581 Y99.551 E.08768
G1 X134.04 Y99.551 E.01722
G1 X135.987 Y101.499 E.08765
G1 X135.446 Y101.499 E.01722
G1 X133.499 Y99.551 E.08765
G1 X132.958 Y99.551 E.01722
G1 X134.905 Y101.499 E.08765
G1 X134.363 Y101.499 E.01725
G1 X132.416 Y99.551 E.08765
G1 X131.875 Y99.551 E.01722
G1 X133.822 Y101.499 E.08765
G1 X133.281 Y101.499 E.01722
G1 X131.334 Y99.551 E.08765
G1 X130.792 Y99.551 E.01725
G1 X132.74 Y101.499 E.08768
G1 X132.198 Y101.499 E.01725
G1 X130.251 Y99.551 E.08765
G1 X129.71 Y99.551 E.01722
G1 X131.657 Y101.499 E.08765
G1 X131.116 Y101.499 E.01722
G1 X129.169 Y99.551 E.08765
G1 X128.627 Y99.551 E.01725
G1 X130.574 Y101.499 E.08765
G1 X130.033 Y101.499 E.01722
G1 X128.086 Y99.551 E.08765
G1 X127.545 Y99.551 E.01722
G1 X129.492 Y101.499 E.08765
G1 X128.95 Y101.499 E.01725
G1 X127.003 Y99.551 E.08765
G1 X126.462 Y99.551 E.01722
G1 X128.409 Y101.499 E.08765
G1 X127.868 Y101.499 E.01722
G1 X125.921 Y99.551 E.08765
G1 X125.379 Y99.551 E.01725
G1 X127.327 Y101.499 E.08768
G1 X126.785 Y101.499 E.01725
G1 X124.838 Y99.551 E.08765
G1 X124.297 Y99.551 E.01722
G1 X126.244 Y101.499 E.08765
G1 X125.703 Y101.499 E.01722
G1 X123.756 Y99.551 E.08765
G1 X123.214 Y99.551 E.01725
G1 X125.161 Y101.499 E.08765
G1 X124.62 Y101.499 E.01722
G1 X122.673 Y99.551 E.08765
G1 X122.132 Y99.551 E.01722
G1 X124.079 Y101.499 E.08765
G1 X123.538 Y101.499 E.01722
G1 X121.59 Y99.551 E.08768
G1 X121.049 Y99.551 E.01722
G1 X122.996 Y101.499 E.08765
G1 X122.455 Y101.499 E.01722
G1 X120.508 Y99.551 E.08765
G1 X119.967 Y99.551 E.01722
G1 X121.914 Y101.499 E.08765
G1 X121.372 Y101.499 E.01725
G1 X119.425 Y99.551 E.08765
G1 X118.884 Y99.551 E.01722
G1 X120.831 Y101.499 E.08765
G1 X120.29 Y101.499 E.01722
G1 X118.343 Y99.551 E.08765
G1 X117.801 Y99.551 E.01725
G1 X119.749 Y101.499 E.08768
G1 X119.207 Y101.499 E.01725
G1 X117.26 Y99.551 E.08765
G1 X116.719 Y99.551 E.01722
G1 X118.666 Y101.499 E.08765
G1 X118.125 Y101.499 E.01722
G1 X116.178 Y99.551 E.08765
G1 X115.636 Y99.551 E.01725
G1 X117.583 Y101.499 E.08765
G1 X117.042 Y101.499 E.01722
G1 X115.095 Y99.551 E.08765
G1 X114.554 Y99.551 E.01722
G1 X116.501 Y101.499 E.08765
G1 X115.959 Y101.499 E.01725
G1 X114.012 Y99.551 E.08765
G1 X113.471 Y99.551 E.01722
G1 X115.418 Y101.499 E.08765
G1 X114.877 Y101.499 E.01722
G1 X112.947 Y99.569 E.08687
G1 X112.768 Y99.614 E.00587
G1 X112.561 Y99.724 E.00746
G1 X114.336 Y101.499 E.07989
G1 X113.794 Y101.499 E.01725
G1 X112.292 Y99.996 E.06763
G1 X112.189 Y100.193 E.00707
G1 X112.143 Y100.388 E.00638
G1 X113.253 Y101.499 E.04998
G1 X112.932 Y101.48 E.01023
G1 X112.768 Y101.436 E.0054
G1 X112.615 Y101.364 E.00538
G1 X112.489 Y101.276 E.00489
G1 X111.993 Y100.78 E.02232
M204 S1000
; stop printing object SmallBellow.STL id:0 copy 0
M106 S84.15
;LAYER_CHANGE
G1 Y150 Z60
G4 P5000
;Z:0.35
;HEIGHT:0.15
;BEFORE_LAYER_CHANGE
G92 E0.0
;0.35


;WIPE_START
G1 F8640
G1 X112.489 Y101.276 E-.16197
G1 X112.615 Y101.364 E-.03549
G1 X112.768 Y101.436 E-.03904
G1 X112.932 Y101.48 E-.03921
G1 X113.253 Y101.499 E-.07425
G1 X112.143 Y100.388 E-.36263
G1 X112.189 Y100.193 E-.04626
G1 X112.272 Y100.035 E-.04115
;WIPE_END
G1 Z.6 F720
;AFTER_LAYER_CHANGE
;0.35
